X:17
T:Delahunty's
Z: id:dc-hornpipe-16
M:C|
L:1/8
K:D Mixolydian
FG|ABAF DEFG|AGAB c2 (3AB^c|d^cde fdAF|DGGF G2FG|!
ABAF DEFG|AGAB c2 (3AB^c|d^cde fdAG|F2D2 D2:|!
de|fefd e^cAF|Gggf g2fg|a^gab a=ge^c|dcAF G2FG|!
ABAF DEFG|AGAB c2 (3AB^c|d^cde fdAG|F2D2 D2:|!

